public/svg/page_404.svg

<svg width="123" height="54" viewBox="0 0 123 54" fill="none" xmlns="http://www.w3.org/2000/svg">
<path fill-rule="evenodd" clip-rule="evenodd" d="M19.0361 10.0492C19.0361 8.39234 20.3793 7.04919 22.0361 7.04919H67.9108C69.5677 7.04919 70.9108 8.39234 70.9108 10.0492V11.3724C70.9108 11.5914 70.7147 11.7571 70.4957 11.7571H58.087C56.6121 11.7571 55.4163 12.9528 55.4163 14.4278C55.4163 15.9028 56.6121 17.0985 58.087 17.0985H70.4957C70.7147 17.0985 70.9108 17.2642 70.9108 17.4832V28.7314C70.9108 30.3883 69.5677 31.7314 67.9108 31.7314H22.0361C20.3793 31.7314 19.0361 30.3883 19.0361 28.7314C19.0361 27.4536 20.072 26.4177 21.3498 26.4177H30.7177C32.1926 26.4177 33.3884 25.222 33.3884 23.747C33.3884 22.2721 32.1927 21.0764 30.7177 21.0764H20.625C19.7475 21.0764 19.0361 20.365 19.0361 19.4875V17.5836C19.0361 16.796 20.2355 16.2288 21.0231 16.2288H38.1087C39.5837 16.2288 40.7794 15.0331 40.7794 13.5581C40.7794 12.0831 39.5837 10.8874 38.1087 10.8874H21.0231C20.8474 10.8874 20.6758 10.9044 20.5096 10.9368C19.9148 11.0526 19.0361 10.6552 19.0361 10.0492ZM54.687 27.441C53.2121 27.441 52.0164 26.2453 52.0164 24.7703C52.0164 23.2954 53.2121 22.0996 54.687 22.0996H67.0957C68.5707 22.0996 69.7664 23.2954 69.7664 24.7703C69.7664 26.2453 68.5707 27.441 67.0957 27.441H54.687Z" fill="#EBE8F1"/>
<path fill-rule="evenodd" clip-rule="evenodd" d="M122.861 18.9111C122.861 17.2543 121.517 15.9111 119.861 15.9111H67.6143C65.9574 15.9111 64.6143 17.2543 64.6143 18.9111V20.7653C64.6143 21.0112 64.8345 21.1973 65.0804 21.1973H79.0132C80.6693 21.1973 82.0119 22.5399 82.0119 24.196C82.0119 25.8522 80.6693 27.1947 79.0132 27.1947H65.0804C64.8345 27.1947 64.6143 27.3808 64.6143 27.6267V40.625C64.6143 42.2819 65.9574 43.625 67.6143 43.625H119.861C121.517 43.625 122.861 42.2819 122.861 40.625C122.861 38.9867 121.532 37.6586 119.894 37.6586H109.744C108.088 37.6586 106.745 36.3161 106.745 34.6599C106.745 33.0038 108.088 31.6612 109.744 31.6612H121.076C122.062 31.6612 122.861 30.8625 122.861 29.8772V27.7395C122.861 26.8552 121.514 26.2182 120.63 26.2182H101.445C99.7892 26.2182 98.4466 24.8757 98.4466 23.2195C98.4466 21.5634 99.7892 20.2208 101.445 20.2208H120.63C120.701 20.2208 120.771 20.2233 120.841 20.2282C121.649 20.2844 122.861 19.7211 122.861 18.9111ZM82.8308 38.8076C84.4869 38.8076 85.8295 37.465 85.8295 35.8089C85.8295 34.1527 84.4869 32.8102 82.8307 32.8102H68.898C67.2418 32.8102 65.8993 34.1527 65.8993 35.8089C65.8993 37.465 67.2418 38.8076 68.898 38.8076H82.8308Z" fill="#EBE8F1"/>
<path d="M22.0077 30.7318C20.2065 30.7608 18.4176 30.938 16.6524 31.1129L16.6397 31.1142C14.6974 31.3066 12.7836 31.4957 10.8644 31.4957C10.3274 31.4957 9.8022 31.4633 9.28873 31.3985C9.77185 29.9814 10.2954 28.5572 10.8242 27.1188C10.8818 26.9619 10.9395 26.8049 10.9973 26.6477C11.6536 24.8608 12.3114 23.0526 12.8957 21.227C14.0642 17.5768 14.9484 13.8305 14.9484 9.97973C14.9484 9.01652 14.2912 8.38506 13.6015 8.02189C12.9094 7.65743 12.0754 7.49573 11.4404 7.49573C9.95295 7.49573 8.36829 8.23879 7.94737 9.92246L7.94539 9.93035L7.94368 9.93831C7.47523 12.1102 7.04995 13.96 6.66777 15.4888C5.95626 18.2555 5.02758 21.0107 3.99776 23.6882L3.99369 23.6988L3.9901 23.7096C3.7752 24.3543 3.53663 25.0261 3.29249 25.7135C2.90042 26.8175 2.49401 27.9619 2.14831 29.0993C1.58158 30.9638 1.14844 32.8946 1.14844 34.8117C1.14844 35.5076 1.34333 36.1332 1.74561 36.6653C2.14345 37.1915 2.72078 37.5956 3.43907 37.8968L3.43906 37.8969L3.44425 37.899C5.35507 38.6752 7.43258 38.8643 9.48396 38.8124C11.1368 38.7705 12.8038 38.5702 14.3682 38.3822C14.7397 38.3376 15.1055 38.2936 15.4639 38.2526C18.2438 37.9522 20.2708 37.8036 21.5624 37.8006C21.5528 38.9802 21.5109 40.1621 21.4688 41.3524L21.4687 41.3549C21.4207 42.7073 21.3724 44.0704 21.3724 45.4357C21.3724 47.6858 23.5263 49.0717 25.4564 49.0717C27.2883 49.0717 28.9004 47.7973 28.9005 45.8197L28.9004 45.816L28.84 37.6611C29.7228 37.646 30.6094 37.7263 31.5206 37.8212C31.6394 37.8336 31.7587 37.8462 31.8786 37.8589C32.8306 37.9597 33.8128 38.0637 34.8004 38.0637C35.5062 38.0637 35.9985 37.5595 36.3294 36.9038C37.3488 35.1073 37.1026 32.7064 35.2804 31.4589C34.2058 30.6798 33.0082 30.4309 31.8274 30.3826C31.0212 30.3497 30.1776 30.4116 29.3803 30.4701C29.2132 30.4824 29.0481 30.4945 28.8858 30.5056C28.84 28.6394 28.8628 26.7854 28.9637 24.9187C29.0265 23.7573 29.1072 22.5879 29.1882 21.4139C29.3636 18.8722 29.5404 16.3085 29.5404 13.7557C29.5404 12.3824 29.3798 11.0455 28.7564 10.0432C28.1018 8.99076 26.9945 8.39173 25.3284 8.39173C24.1786 8.39173 23.2603 8.83818 22.6555 9.75173C22.0747 10.6291 21.8204 11.8817 21.8204 13.4357C21.8204 17.1229 21.8738 20.8153 21.9272 24.5034C21.9572 26.5815 21.9873 28.6582 22.0077 30.7318Z" fill="#704FE6" stroke="#373737"/>
<path d="M14.431 9.75103C13.7819 9.28058 12.8352 9.06901 12.1569 9.06901C10.8069 9.06901 9.49463 9.73412 9.14891 11.117C8.67958 13.293 8.25291 15.149 7.86891 16.685C7.15132 19.4756 6.2158 22.2503 5.18091 24.941C4.95916 25.6063 4.71779 26.2856 4.47269 26.9755C3.45116 29.8506 2.36491 32.908 2.36491 35.885C2.36491 36.1928 2.40881 36.4794 2.49661 36.7447C1.93116 36.2372 1.64844 35.5928 1.64844 34.8117C1.64844 31.8347 2.73469 28.7774 3.75622 25.9022C4.00132 25.2123 4.24269 24.533 4.46444 23.8677C5.49932 21.177 6.43485 18.4024 7.15244 15.6117C7.53644 14.0757 7.9631 12.2197 8.43244 10.0437C8.77816 8.66084 10.0905 7.99573 11.4404 7.99573C12.5077 7.99573 14.2389 8.5194 14.431 9.75103Z" fill="#DEC8FE"/>
<path d="M9.65856 31.9415C9.55077 32.2537 9.44476 32.5655 9.34091 32.877C10.0662 33.005 10.8129 33.069 11.5809 33.069C13.5291 33.069 15.4677 32.877 17.4061 32.685C19.3441 32.493 21.2819 32.301 23.2289 32.301C23.2085 30.0551 23.176 27.8092 23.1435 25.5631C23.0902 21.8784 23.0369 18.1936 23.0369 14.509C23.0369 11.4797 24.0396 9.96501 26.0449 9.96501C27.2111 9.96501 28.0276 10.2779 28.5915 10.8152C28.1022 9.6424 27.1349 8.89173 25.3284 8.89173C23.3231 8.89173 22.3204 10.4064 22.3204 13.4357C22.3204 17.1203 22.3737 20.8051 22.427 24.4898C22.4595 26.7359 22.492 28.9819 22.5124 31.2277C20.5654 31.2277 18.6276 31.4197 16.6896 31.6117C14.7512 31.8037 12.8126 31.9957 10.8644 31.9957C10.4565 31.9957 10.0545 31.9777 9.65856 31.9415Z" fill="#DEC8FE"/>
<path d="M29.0901 30.9928C29.0963 31.3645 29.1053 31.7365 29.1169 32.109C29.4635 32.0917 29.8149 32.0658 30.1684 32.0398C32.0894 31.8986 34.0748 31.7526 35.7089 32.941C35.8771 33.0557 36.0302 33.1822 36.1683 33.3187C35.936 32.7509 35.5461 32.2452 34.9924 31.8677C33.3583 30.6793 31.3729 30.8253 29.452 30.9666C29.331 30.9754 29.2104 30.9843 29.0901 30.9928Z" fill="#DEC8FE"/>
<path d="M22.7702 47.4998C22.6535 47.1945 22.5889 46.8628 22.5889 46.509C22.5889 45.1526 22.6369 43.7969 22.685 42.4417C22.7329 41.0876 22.7809 39.7341 22.7809 38.381C22.5656 38.3738 22.3238 38.3721 22.0554 38.3758C22.0392 39.373 22.0039 40.3706 21.9685 41.3684C21.9205 42.7236 21.8724 44.0793 21.8724 45.4357C21.8724 46.2626 22.2254 46.9684 22.7702 47.4998Z" fill="#DEC8FE"/>
<path d="M105.918 34.1796C104.117 34.2086 102.328 34.3858 100.563 34.5607L100.55 34.5619C98.6076 34.7543 96.6938 34.9435 94.7746 34.9435C94.2375 34.9435 93.7124 34.911 93.1989 34.8463C93.682 33.4292 94.2055 32.005 94.7343 30.5666C94.792 30.4097 94.8497 30.2527 94.9074 30.0954C95.5637 28.3085 96.2215 26.5004 96.8059 24.6748C97.9744 21.0245 98.8586 17.2783 98.8586 13.4275C98.8586 12.4643 98.2014 11.8328 97.5117 11.4696C96.8195 11.1052 95.9856 10.9435 95.3506 10.9435C93.8631 10.9435 92.2784 11.6865 91.8575 13.3702L91.8555 13.3781L91.8538 13.3861C91.3854 15.5579 90.9601 17.4078 90.5779 18.9366C89.8664 21.7032 88.9377 24.4585 87.9079 27.136L87.9038 27.1466L87.9003 27.1574C87.6854 27.802 87.4468 28.4738 87.2026 29.1613C86.8106 30.2653 86.4042 31.4097 86.0585 32.547C85.4917 34.4115 85.0586 36.3423 85.0586 38.2595C85.0586 38.9553 85.2535 39.581 85.6558 40.113C86.0536 40.6392 86.6309 41.0434 87.3492 41.3446L87.3492 41.3446L87.3544 41.3467C89.2652 42.123 91.3427 42.3121 93.3941 42.2601C95.0469 42.2182 96.7139 42.0179 98.2783 41.83C98.6499 41.7853 99.0157 41.7414 99.3741 41.7004C102.154 41.3999 104.181 41.2514 105.473 41.2484C105.463 42.4279 105.421 43.6098 105.379 44.8001L105.379 44.8027C105.331 46.155 105.283 47.5182 105.283 48.8835C105.283 51.1336 107.436 52.5195 109.367 52.5195C111.199 52.5195 112.811 51.2451 112.811 49.2675L112.811 49.2638L112.75 41.1088C113.633 41.0937 114.52 41.174 115.431 41.2689C115.55 41.2813 115.669 41.2939 115.789 41.3066C116.741 41.4075 117.723 41.5115 118.711 41.5115C119.416 41.5115 119.909 41.0073 120.24 40.3516C121.259 38.5551 121.013 36.1542 119.191 34.9067C118.116 34.1275 116.918 33.8786 115.738 33.8304C114.931 33.7975 114.088 33.8594 113.29 33.9179C113.123 33.9302 112.958 33.9423 112.796 33.9533C112.75 32.0871 112.773 30.2332 112.874 28.3665C112.937 27.205 113.017 26.0357 113.098 24.8616C113.274 22.3199 113.451 19.7563 113.451 17.2035C113.451 15.8301 113.29 14.4933 112.667 13.4909C112.012 12.4385 110.905 11.8395 109.239 11.8395C108.089 11.8395 107.17 12.2859 106.566 13.1995C105.985 14.0768 105.731 15.3295 105.731 16.8835C105.731 20.5706 105.784 24.2631 105.837 27.9512C105.867 30.0293 105.897 32.106 105.918 34.1796Z" fill="#704FE6" stroke="#373737"/>
<path d="M98.3411 13.1988C97.692 12.7283 96.7454 12.5168 96.0671 12.5168C94.7171 12.5168 93.4048 13.1819 93.0591 14.5648C92.5897 16.7408 92.1631 18.5968 91.7791 20.1328C91.0615 22.9234 90.126 25.6981 89.0911 28.3888C88.8693 29.054 88.6279 29.7334 88.3828 30.4232C87.3613 33.2984 86.2751 36.3557 86.2751 39.3328C86.2751 39.6406 86.319 39.9271 86.4068 40.1924C85.8413 39.6849 85.5586 39.0406 85.5586 38.2595C85.5586 35.2824 86.6448 32.2251 87.6664 29.3499C87.9115 28.6601 88.1528 27.9807 88.3746 27.3155C89.4095 24.6248 90.345 21.8501 91.0626 19.0595C91.4466 17.5235 91.8733 15.6675 92.3426 13.4915C92.6883 12.1086 94.0006 11.4435 95.3506 11.4435C96.4178 11.4435 98.1491 11.9672 98.3411 13.1988Z" fill="#DEC8FE"/>
<path d="M93.5687 35.3893C93.4609 35.7014 93.3549 36.0132 93.2511 36.3248C93.9764 36.4528 94.7231 36.5168 95.4911 36.5168C97.4393 36.5168 99.3779 36.3247 101.316 36.1327C103.254 35.9407 105.192 35.7488 107.139 35.7488C107.119 33.5029 107.086 31.2569 107.054 29.0109C107 25.3262 106.947 21.6413 106.947 17.9568C106.947 14.9274 107.95 13.4128 109.955 13.4128C111.121 13.4128 111.938 13.7256 112.502 14.263C112.012 13.0901 111.045 12.3395 109.239 12.3395C107.233 12.3395 106.231 13.8541 106.231 16.8835C106.231 20.5681 106.284 24.2529 106.337 27.9376C106.37 30.1836 106.402 32.4296 106.423 34.6755C104.476 34.6755 102.538 34.8674 100.6 35.0594C98.6614 35.2514 96.7228 35.4435 94.7746 35.4435C94.3666 35.4435 93.9647 35.4254 93.5687 35.3893Z" fill="#DEC8FE"/>
<path d="M113 34.4406C113.006 34.8122 113.015 35.1842 113.027 35.5568C113.374 35.5394 113.725 35.5136 114.079 35.4876C116 35.3463 117.985 35.2003 119.619 36.3888C119.787 36.5034 119.94 36.6299 120.078 36.7664C119.846 36.1987 119.456 35.693 118.903 35.3155C117.268 34.127 115.283 34.273 113.362 34.4143C113.241 34.4232 113.121 34.4321 113 34.4406Z" fill="#DEC8FE"/>
<path d="M106.68 50.9476C106.564 50.6423 106.499 50.3106 106.499 49.9568C106.499 48.6004 106.547 47.2446 106.595 45.8894C106.643 44.5354 106.691 43.1818 106.691 41.8288C106.476 41.8216 106.234 41.8198 105.966 41.8235C105.949 42.8208 105.914 43.8183 105.879 44.8162C105.831 46.1714 105.783 47.5271 105.783 48.8835C105.783 49.7104 106.136 50.4162 106.68 50.9476Z" fill="#DEC8FE"/>
<path d="M46.7035 12.5297L46.7035 12.5297L46.7013 12.5346C43.7075 19.4029 43.4808 27.9925 47.5667 34.5659C50.6901 39.6037 56.5662 42.8024 62.4557 42.8024C69.288 42.8024 74.3718 37.9933 76.6196 31.9186C78.9 25.9712 79.0064 19.2895 77.1421 13.2291C76.0382 9.58648 74.2537 6.64143 71.701 4.60798C69.1442 2.57132 65.8583 1.48242 61.8157 1.48242C54.7185 1.48242 49.4357 6.44077 46.7035 12.5297ZM68.6155 31.4909L68.6144 31.4929C67.0805 34.1569 64.8334 35.4664 61.8157 35.4664C58.4064 35.4664 55.4416 33.7189 53.7412 30.7323C52.5947 28.6009 52.0117 26.0633 52.0117 23.1024C52.0117 19.0883 53.1701 15.6321 55.376 12.3194C57.1636 9.94149 59.7036 8.37042 62.6477 8.37042C65.5076 8.37042 67.5776 9.5416 68.9344 11.8961L68.9344 11.8961L68.9363 11.8993C70.3289 14.2748 71.0437 17.3584 71.0437 21.1824C71.0437 25.2984 70.2248 28.7263 68.6155 31.4909Z" fill="#DEC8FE" stroke="#373737"/>
<path d="M77.9423 22.2121C77.9755 19.2248 77.5423 16.2299 76.6637 13.3744C74.4985 6.22947 69.7136 1.98242 61.8157 1.98242C54.9822 1.98242 49.8427 6.75504 47.1597 12.7344C44.2152 19.4895 44.0117 27.8999 47.9917 34.3024C50.0396 37.6055 53.3129 40.0977 56.9854 41.3666C51.6814 38.361 47.9736 31.4846 47.9736 23.4824C47.9736 12.7129 54.6894 3.98242 62.9736 3.98242C70.9296 3.98242 77.4389 12.0346 77.9423 22.2121Z" fill="#F2EAFE"/>
</svg>

<svg width="123" height="54" viewBox="0 0 123 54" fill="none" xmlns="http://www.w3.org/2000/svg"><path fill-rule="evenodd" clip-rule="evenodd" d="M19.036 10.05a3 3 0 0 1 3-3h45.875a3 3 0 0 1 3 3v1.322c0 .22-.196.385-.415.385H58.087a2.67 2.67 0 0 0 0 5.342h12.409c.219 0 .415.165.415.384v11.248a3 3 0 0 1-3 3H22.036a3 3 0 0 1-3-3 2.314 2.314 0 0 1 2.314-2.313h9.368a2.67 2.67 0 0 0 0-5.342H20.625a1.589 1.589 0 0 1-1.589-1.588v-1.904c0-.788 1.2-1.355 1.987-1.355H38.11a2.67 2.67 0 1 0 0-5.342H21.023c-.176 0-.347.017-.513.05-.595.116-1.474-.282-1.474-.888ZM54.687 27.44a2.67 2.67 0 0 1 0-5.341h12.409a2.67 2.67 0 0 1 0 5.341H54.687Z" fill="#EBE8F1"/><path fill-rule="evenodd" clip-rule="evenodd" d="M122.861 18.911a3 3 0 0 0-3-3H67.614a3 3 0 0 0-3 3v1.854c0 .246.22.432.466.432h13.933a2.999 2.999 0 0 1 0 5.998H65.08c-.245 0-.466.186-.466.432v12.998a3 3 0 0 0 3 3h52.247a3 3 0 0 0 3-3 2.967 2.967 0 0 0-2.967-2.966h-10.15a2.999 2.999 0 0 1 0-5.998h11.332c.986 0 1.785-.799 1.785-1.784V27.74c0-.885-1.347-1.522-2.231-1.522h-19.185a2.999 2.999 0 0 1 0-5.997h19.185c.071 0 .141.002.211.007.808.056 2.02-.507 2.02-1.317Zm-40.03 19.897a2.999 2.999 0 1 0 0-5.998H68.898a2.999 2.999 0 1 0 0 5.998h13.933Z" fill="#EBE8F1"/><path d="M22.008 30.732c-1.802.029-3.59.206-5.356.38l-.012.002c-1.943.193-3.856.382-5.776.382-.537 0-1.062-.033-1.575-.098a192.473 192.473 0 0 1 1.535-4.28l.173-.47c.657-1.787 1.314-3.595 1.899-5.421 1.168-3.65 2.052-7.396 2.052-11.247 0-.963-.657-1.595-1.347-1.958a4.895 4.895 0 0 0-2.16-.526c-1.488 0-3.073.743-3.494 2.426l-.002.008-.001.008a178.923 178.923 0 0 1-1.276 5.55c-.712 2.768-1.64 5.523-2.67 8.2l-.004.01-.004.012c-.215.644-.453 1.316-.698 2.003-.392 1.104-.798 2.249-1.144 3.386-.566 1.865-1 3.796-1 5.713 0 .696.195 1.321.598 1.853.397.526.975.93 1.693 1.232l.005.002c1.911.776 3.989.965 6.04.913 1.653-.041 3.32-.242 4.884-.43l1.096-.13c2.78-.3 4.807-.448 6.098-.451-.01 1.18-.051 2.361-.093 3.551v.003a115.021 115.021 0 0 0-.097 4.08c0 2.25 2.154 3.637 4.084 3.637 1.832 0 3.444-1.275 3.445-3.252v-.004l-.061-8.155c.883-.015 1.77.065 2.68.16l.359.038c.952.1 1.934.205 2.921.205.706 0 1.199-.505 1.53-1.16 1.019-1.797.773-4.198-1.05-5.445-1.074-.78-2.272-1.028-3.453-1.076-.806-.033-1.65.029-2.447.087a96.02 96.02 0 0 1-.494.036 70.975 70.975 0 0 1 .078-5.587c.063-1.162.143-2.331.224-3.505.176-2.542.352-5.106.352-7.658 0-1.374-.16-2.71-.784-3.713-.654-1.052-1.762-1.651-3.428-1.651-1.15 0-2.068.446-2.672 1.36-.581.877-.836 2.13-.836 3.684 0 3.687.054 7.38.107 11.067.03 2.078.06 4.155.08 6.229Z" fill="#704FE6" stroke="#373737"/><path d="M14.431 9.751c-.65-.47-1.596-.682-2.274-.682-1.35 0-2.662.665-3.008 2.048-.47 2.176-.896 4.032-1.28 5.568-.718 2.79-1.653 5.565-2.688 8.256-.222.665-.463 1.345-.708 2.035-1.022 2.875-2.108 5.932-2.108 8.909 0 .308.044.594.132.86-.566-.508-.849-1.152-.849-1.933 0-2.977 1.087-6.035 2.108-8.91.245-.69.487-1.369.708-2.034 1.035-2.691 1.97-5.466 2.688-8.256.384-1.536.811-3.392 1.28-5.568.346-1.383 1.659-2.048 3.008-2.048 1.068 0 2.799.523 2.991 1.755ZM9.659 31.942c-.108.312-.214.623-.318.935.725.128 1.472.192 2.24.192 1.948 0 3.887-.192 5.825-.384 1.938-.192 3.876-.384 5.823-.384-.02-2.246-.053-4.492-.085-6.738-.054-3.685-.107-7.37-.107-11.054 0-3.03 1.003-4.544 3.008-4.544 1.166 0 1.983.313 2.546.85-.489-1.173-1.456-1.923-3.263-1.923-2.005 0-3.008 1.514-3.008 4.544 0 3.684.054 7.37.107 11.054.032 2.246.065 4.492.085 6.738-1.947 0-3.884.192-5.822.384-1.939.192-3.877.384-5.826.384-.408 0-.81-.018-1.205-.054ZM29.09 30.993c.006.372.015.744.027 1.116.346-.017.698-.043 1.051-.07 1.921-.14 3.907-.286 5.54.902.17.115.322.241.46.378a3.214 3.214 0 0 0-1.176-1.451c-1.634-1.189-3.62-1.043-5.54-.901l-.362.026ZM22.77 47.5a2.76 2.76 0 0 1-.181-.991c0-1.356.048-2.712.096-4.067.048-1.354.096-2.708.096-4.061a15.51 15.51 0 0 0-.726-.005c-.016.997-.051 1.995-.087 2.992-.047 1.356-.096 2.711-.096 4.068 0 .827.353 1.532.898 2.064Z" fill="#DEC8FE"/><path d="M105.918 34.18c-1.801.029-3.59.206-5.355.38l-.013.002c-1.942.192-3.856.382-5.775.382-.538 0-1.063-.033-1.576-.098a192.367 192.367 0 0 1 1.535-4.28l.173-.47c.657-1.788 1.315-3.596 1.899-5.421 1.168-3.65 2.053-7.397 2.053-11.248 0-.963-.658-1.594-1.347-1.957a4.896 4.896 0 0 0-2.161-.527c-1.488 0-3.073.744-3.493 2.427l-.002.008-.002.008a178.784 178.784 0 0 1-1.276 5.55c-.712 2.767-1.64 5.523-2.67 8.2l-.004.01-.004.011c-.215.645-.453 1.317-.697 2.004-.392 1.104-.799 2.249-1.145 3.386-.566 1.864-1 3.795-1 5.713 0 .695.195 1.321.598 1.853.398.526.975.93 1.693 1.232l.005.002c1.911.776 3.989.965 6.04.913 1.653-.042 3.32-.242 4.884-.43.372-.045.738-.089 1.096-.13 2.78-.3 4.807-.449 6.099-.452-.01 1.18-.052 2.362-.094 3.552v.003a115.017 115.017 0 0 0-.096 4.08c0 2.25 2.153 3.636 4.084 3.636 1.832 0 3.444-1.274 3.444-3.252v-.003l-.061-8.155c.883-.015 1.77.065 2.681.16l.358.038c.952.1 1.934.204 2.922.204.705 0 1.198-.504 1.529-1.16 1.019-1.796.773-4.197-1.049-5.444-1.075-.78-2.273-1.028-3.453-1.077-.807-.032-1.65.03-2.448.088l-.494.035a70.828 70.828 0 0 1 .078-5.587c.063-1.161.143-2.33.224-3.504.176-2.542.353-5.106.353-7.659 0-1.373-.161-2.71-.784-3.712-.655-1.053-1.762-1.652-3.428-1.652-1.15 0-2.069.447-2.673 1.36-.581.878-.835 2.13-.835 3.685 0 3.687.053 7.38.106 11.067.03 2.078.06 4.155.081 6.229Z" fill="#704FE6" stroke="#373737"/><path d="M98.341 13.199c-.649-.47-1.596-.682-2.274-.682-1.35 0-2.662.665-3.008 2.048-.47 2.176-.896 4.032-1.28 5.568-.718 2.79-1.653 5.565-2.688 8.256-.222.665-.463 1.344-.708 2.034-1.022 2.875-2.108 5.933-2.108 8.91 0 .308.044.594.132.86-.566-.508-.848-1.152-.848-1.933 0-2.978 1.086-6.035 2.107-8.91.246-.69.487-1.37.709-2.035 1.034-2.69 1.97-5.465 2.688-8.256.384-1.536.81-3.392 1.28-5.568.345-1.382 1.658-2.047 3.008-2.047 1.067 0 2.798.523 2.99 1.755ZM93.569 35.39c-.108.311-.214.623-.318.935.725.128 1.472.192 2.24.192 1.948 0 3.887-.192 5.825-.384 1.938-.192 3.876-.384 5.823-.384-.02-2.246-.053-4.492-.085-6.738-.054-3.685-.107-7.37-.107-11.054 0-3.03 1.003-4.544 3.008-4.544 1.166 0 1.983.313 2.547.85-.49-1.173-1.457-1.924-3.263-1.924-2.006 0-3.008 1.515-3.008 4.545 0 3.684.053 7.369.106 11.054.033 2.246.065 4.492.086 6.738-1.947 0-3.885.191-5.823.383-1.939.192-3.877.385-5.825.385-.408 0-.81-.019-1.206-.055ZM113 34.44c.006.372.015.744.027 1.117.347-.018.698-.043 1.052-.07 1.921-.14 3.906-.287 5.54.902.168.114.321.24.459.377a3.215 3.215 0 0 0-1.175-1.45c-1.635-1.189-3.62-1.043-5.541-.902l-.362.027ZM106.68 50.948a2.775 2.775 0 0 1-.181-.991c0-1.357.048-2.712.096-4.068.048-1.354.096-2.707.096-4.06a15.48 15.48 0 0 0-.725-.005c-.017.997-.052 1.994-.087 2.992-.048 1.355-.096 2.711-.096 4.067 0 .827.353 1.533.897 2.065Z" fill="#DEC8FE"/><path d="m46.703 12.53-.002.005c-2.993 6.868-3.22 15.457.866 22.03 3.123 5.039 9 8.237 14.889 8.237 6.832 0 11.916-4.809 14.164-10.883 2.28-5.948 2.386-12.63.522-18.69-1.104-3.643-2.888-6.588-5.441-8.621-2.557-2.037-5.843-3.126-9.885-3.126-7.098 0-12.38 4.959-15.113 11.048Zm21.912 18.96v.003c-1.534 2.664-3.782 3.973-6.8 3.973-3.409 0-6.373-1.747-8.074-4.734-1.146-2.131-1.73-4.669-1.73-7.63 0-4.014 1.16-7.47 3.365-10.783 1.788-2.378 4.328-3.949 7.272-3.949 2.86 0 4.93 1.172 6.286 3.526l.002.003c1.393 2.376 2.108 5.46 2.108 9.283 0 4.116-.82 7.544-2.428 10.309Z" fill="#DEC8FE" stroke="#373737"/><path d="M77.942 22.212c.034-2.987-.4-5.982-1.278-8.838-2.165-7.145-6.95-11.392-14.848-11.392-6.834 0-11.973 4.773-14.656 10.752-2.945 6.755-3.148 15.166.832 21.568 2.048 3.303 5.32 5.796 8.993 7.065-5.304-3.006-9.011-9.882-9.011-17.885 0-10.77 6.715-19.5 15-19.5 7.956 0 14.465 8.053 14.968 18.23Z" fill="#F2EAFE"/></svg>
